Adwaita++-Light/panel/22/weather-few-clouds.svg

<svg xmlns="http://www.w3.org/2000/svg" width="22" height="22" version="1.1">
 <defs>
  <style id="current-color-scheme" type="text/css">
   .ColorScheme-Text { color:#444444; } .ColorScheme-Highlight { color:#4285f4; }
  </style>
 </defs>
 <g transform="translate(-153.00001,-681.28994)">
  <path style="fill:currentColor" class="ColorScheme-Text" d="M 10 3.0039062 L 9.5 4.0351562 C 9.66191 4.0218563 9.8348 4.0039062 10 4.0039062 L 10.5 4.0039062 L 10 3.0039062 z M 10 5.0039062 C 7.23858 5.0039062 5 7.2424963 5 10.003906 C 5 12.257906 6.51261 14.129676 8.5625 14.753906 C 9.03135 14.076476 9.74225 13.548576 10.53125 13.316406 C 11.15098 11.994376 12.50599 10.978106 14 11.003906 C 14.30449 10.998906 14.58708 11.059906 14.875 11.128906 C 14.9595 10.764556 15 10.393956 15 10.003906 C 15 7.2424963 12.76142 5.0039062 10 5.0039062 z M 5.0625 5.0664062 L 5.40625 6.1289062 C 5.6253 5.8696862 5.86578 5.6292063 6.125 5.4101562 L 5.0625 5.0664062 z M 14.9375 5.0664062 L 13.84375 5.4414062 L 13.78125 5.4414062 C 13.92042 5.5523563 14.05623 5.6665162 14.1875 5.7851562 C 14.31877 5.9037963 14.44549 6.0269063 14.5625 6.1601562 L 14.9375 5.0664062 z M 4 9.5039062 L 3 10.003906 L 4.03125 10.503906 C 4.01645 10.334596 4 10.177506 4 10.003906 C 4 9.9764062 3.998 9.9203062 4 9.8476562 C 4.006 9.7318263 4.02235 9.6154162 4.03125 9.5039062 L 4 9.5039062 z M 15.96875 9.5039062 C 15.98355 9.6732162 16 9.8303063 16 10.003906 C 16 10.031406 16.002 10.087506 16 10.160156 C 15.994 10.275986 15.97765 10.392396 15.96875 10.503906 L 16 10.503906 L 17 10.003906 L 15.96875 9.5039062 z M 14 12.003906 C 12.68832 12.003906 11.59518 12.862336 11.1875 14.035156 C 9.95667 14.191126 9 15.230726 9 16.503906 C 9 17.884616 10.11929 19.003906 11.5 19.003906 L 17 19.003906 C 18.10457 19.003906 19 18.108476 19 17.003906 C 19 15.899336 18.10457 15.003906 17 15.003906 C 17 13.347056 15.65685 12.003906 14 12.003906 z M 5.4375 13.847656 L 5.0625 14.941406 L 6.15625 14.566406 L 6.21875 14.566406 C 6.07958 14.455456 5.94377 14.341296 5.8125 14.222656 C 5.68123 14.104016 5.55451 13.980906 5.4375 13.847656 z" transform="translate(153.00001,681.28994)"/>
 </g>
</svg>

<svg height="22" width="22" xmlns="http://www.w3.org/2000/svg">
  <path d="m10 3.0039062-.5 1.03125c.16191-.0132999.3348-.03125.5-.03125h.5zm0 2c-2.76142 0-5 2.2385901-5 4.9999998 0 2.254 1.51261 4.12577 3.5625 4.75.46885-.67743 1.17975-1.20533 1.96875-1.4375.61973-1.32203 1.97474-2.3383 3.46875-2.3125.30449-.005.58708.056.875.125.0845-.36435.125-.73495.125-1.125 0-2.7614097-2.23858-4.9999998-5-4.9999998zm-4.9375.0625.34375 1.0625c.21905-.25922.45953-.4996999.71875-.71875zm9.875 0-1.09375.375h-.0625c.13917.1109501.27498.22511.40625.34375.13127.1186401.25799.2417501.375.375zm-10.9375 4.4375-1 .4999998 1.03125.5c-.0148-.16931-.03125-.3264-.03125-.5 0-.0274998-.002-.0835998 0-.1562498.006-.1158299.02235-.23224.03125-.34375zm11.96875 0c.0148.16931.03125.3264001.03125.4999998 0 .0275.002.0836 0 .15625-.006.11583-.02235.23224-.03125.34375h.03125l1-.5zm-1.96875 2.4999998c-1.31168 0-2.40482.85843-2.8125 2.03125-1.23083.15597-2.1875 1.19557-2.1875 2.46875 0 1.38071 1.11929 2.5 2.5 2.5h5.5c1.10457 0 2-.89543 2-2s-.89543-2-2-2c0-1.65685-1.34315-3-3-3zm-8.5625 1.84375-.375 1.09375 1.09375-.375h.0625c-.13917-.11095-.27498-.22511-.40625-.34375s-.25799-.24175-.375-.375z" fill="#444"/>
</svg>
